X:1487
T:Delvinsides. JMT051
O:england
M:4/4
L:1/8
Q:150
S:J.Moore,Tyneside,1841.(38)
R:Reel
A:Northumbria
H:184
K:D
Be (d/c/B/A/) dGBG|Be (d/c/B/A/) dDAD|Be (d/c/B/A/) dBBg|fdec dDAF:|
|:dEBE dEEe|dEBE dDDf|dEBE dEEg|(f/g/a/f/) (e/f/g/e/) dDAF:|
|:Bece Bece|Bece dAFD|Bece dBBg|(f/g/a/g/) (e/f/g/e/) dDAF:|
|:e2Bc/d/e2Bc/d/|e2Bc/d/ dAFD|e2Bc/d/ eeeg|fdec dDAF:|]


